storage/app/icons/phosphoricons/light/gitlab-logo-simple-light.svg

<svg xmlns="http://www.w3.org/2000/svg" fill="currentColor" viewBox="0 0 256 256"><path d="m228.21 117.61-19.89-76.12a9.94 9.94 0 0 0-19-.93L171.17 90H84.83L66.66 40.56a9.94 9.94 0 0 0-19 .93l-19.87 76.12A55.18 55.18 0 0 0 49 176.42l73.27 51.77a9.94 9.94 0 0 0 11.44 0L207 176.42a55.18 55.18 0 0 0 21.21-58.81m-28.15 49L128 217.53l-72.06-50.91a43.12 43.12 0 0 1-16.54-46l18.25-69.8L75 98.07a6 6 0 0 0 5.64 3.93h94.72a6 6 0 0 0 5.64-3.93l17.36-47.25 18.25 69.82a43.12 43.12 0 0 1-16.55 45.98Z"/></svg>

<svg xmlns="http://www.w3.org/2000/svg" viewBox="0 0 256 256" fill="currentColor"><path d="M228.21,117.61,208.32,41.49a9.94,9.94,0,0,0-19-.93L171.17,90H84.83L66.66,40.56a9.94,9.94,0,0,0-19,.93L27.79,117.61A55.18,55.18,0,0,0,49,176.42l73.27,51.77a9.94,9.94,0,0,0,11.44,0L207,176.42A55.18,55.18,0,0,0,228.21,117.61Zm-28.15,49L128,217.53,55.94,166.62a43.12,43.12,0,0,1-16.54-46L57.65,50.82,75,98.07A6,6,0,0,0,80.64,102h94.72A6,6,0,0,0,181,98.07l17.36-47.25,18.25,69.82A43.12,43.12,0,0,1,200.06,166.62Z"/></svg>
